src/pos-icons/file-refresh-outline.svg

<svg height="24" viewBox="0 0 24 24" width="24" xmlns="http://www.w3.org/2000/svg"><path d="m18 14.5c1.11 0 2.11.45 2.83 1.17l1.17-1.17v4h-4l1.77-1.77c-.45-.45-1.08-.73-1.77-.73-1.38 0-2.5 1.12-2.5 2.5s1.12 2.5 2.5 2.5c.82 0 1.54-.39 2-1h1.71c-.59 1.47-2.03 2.5-3.71 2.5-2.21 0-4-1.79-4-4s1.79-4 4-4m-4-12.5 6 6v4.17c-.5-.11-1-.17-1.5-.17h-.5v-3h-5v-5h-7v16h6.17c.17.72.46 1.39.83 2h-7c-1.1 0-2-.9-2-2v-16c0-1.1.9-2 2-2z"/></svg>

<?xml version="1.0" encoding="UTF-8"?><!DOCTYPE svg PUBLIC "-//W3C//DTD SVG 1.1//EN" "http://www.w3.org/Graphics/SVG/1.1/DTD/svg11.dtd"><svg xmlns="http://www.w3.org/2000/svg" xmlns:xlink="http://www.w3.org/1999/xlink" version="1.1" id="mdi-file-refresh-outline" width="24" height="24" viewBox="0 0 24 24"><path d="M18 14.5C19.11 14.5 20.11 14.95 20.83 15.67L22 14.5V18.5H18L19.77 16.73C19.32 16.28 18.69 16 18 16C16.62 16 15.5 17.12 15.5 18.5C15.5 19.88 16.62 21 18 21C18.82 21 19.54 20.61 20 20H21.71C21.12 21.47 19.68 22.5 18 22.5C15.79 22.5 14 20.71 14 18.5C14 16.29 15.79 14.5 18 14.5M14 2L20 8V12.17C19.5 12.06 19 12 18.5 12L18 12V9H13V4H6V20H12.17C12.34 20.72 12.63 21.39 13 22H6C4.9 22 4 21.1 4 20V4C4 2.9 4.9 2 6 2H14Z" /></svg>
